X:92
T:Garrett Barry's
R:jig
Z:Transcribed by Dave Marshall
M:6/8
K:Dmix
|:DEF ~G3|AGE ~c3|dcA d2e|fed cAG|
~F3 GFG|AGE cde|dcA GEA|DED D3:|
|:dcA d2e|fed fge|dcA c2d|egd edc|
dcA d2e|fed fge|dcA GEA|DED D3:|
